X: 8984
T: Cutting The Hay
R: reel
M: 4/4
K: Dmajor
|:~A2FD A,DFA|dcdf edBd|~A2FD ADFA|BGEF GFGB|
~A2FD A,DFA|dcdf ed(3Bcd|faaf (3gfe dB|1 ABde fedB:|2 ABde fdde||
|:fgfe dfaf|~e2cA EAce|fd~d2 fgaf|gbag fdde|
fgfe dfaf|~e2cA eAce|faaf (3gfe dB|1 ABde fdde:|2 ABde fddB||

